icons/evolvere-blue-folders-flat-vivid-dark-fallback/apps/64/msoutlook-2007.svg

<?xml version="1.0" encoding="UTF-8" standalone="no"?>
<!-- Created with Inkscape (http://www.inkscape.org/) -->

<svg
   xmlns:dc="http://purl.org/dc/elements/1.1/"
   xmlns:cc="http://creativecommons.org/ns#"
   xmlns:rdf="http://www.w3.org/1999/02/22-rdf-syntax-ns#"
   xmlns:svg="http://www.w3.org/2000/svg"
   xmlns="http://www.w3.org/2000/svg"
   xmlns:sodipodi="http://sodipodi.sourceforge.net/DTD/sodipodi-0.dtd"
   xmlns:inkscape="http://www.inkscape.org/namespaces/inkscape"
   width="64"
   height="64"
   id="svg13094"
   version="1.1"
   inkscape:version="0.48.4 r9939"
   sodipodi:docname="msoutlook-2007.svg">
  <sodipodi:namedview
     id="base"
     pagecolor="#ffffff"
     bordercolor="#666666"
     borderopacity="1.0"
     inkscape:pageopacity="0"
     inkscape:pageshadow="2"
     inkscape:zoom="11.313709"
     inkscape:cx="37.415573"
     inkscape:cy="30.394281"
     inkscape:document-units="px"
     inkscape:current-layer="svg13094"
     showgrid="true"
     inkscape:snap-bbox="true"
     inkscape:bbox-paths="true"
     inkscape:bbox-nodes="true"
     inkscape:snap-bbox-edge-midpoints="true"
     inkscape:snap-bbox-midpoints="true"
     inkscape:object-paths="true"
     inkscape:snap-intersection-paths="true"
     inkscape:object-nodes="true"
     inkscape:snap-smooth-nodes="true"
     inkscape:snap-midpoints="true"
     inkscape:snap-object-midpoints="true"
     inkscape:snap-center="true"
     showguides="true"
     inkscape:guide-bbox="true"
     inkscape:window-width="1920"
     inkscape:window-height="1025"
     inkscape:window-x="-2"
     inkscape:window-y="32"
     inkscape:window-maximized="1"
     inkscape:snap-global="true"
     fit-margin-top="0"
     fit-margin-left="0"
     fit-margin-right="0"
     fit-margin-bottom="0"
     showborder="true"
     inkscape:showpageshadow="false"
     inkscape:snap-page="true">
    <inkscape:grid
       type="xygrid"
       id="grid3075"
       empspacing="5"
       visible="true"
       enabled="true"
       snapvisiblegridlinesonly="true"
       originx="0px"
       originy="18px" />
  </sodipodi:namedview>
  <defs
     id="defs13096" />
  <metadata
     id="metadata13099">
    <rdf:RDF>
      <cc:Work
         rdf:about="">
        <dc:format>image/svg+xml</dc:format>
        <dc:type
           rdf:resource="http://purl.org/dc/dcmitype/StillImage" />
        <dc:title />
      </cc:Work>
    </rdf:RDF>
  </metadata>
  <path
     style="color:#000000;fill:#ffde53;fill-opacity:1;fill-rule:nonzero;stroke:none;stroke-width:2.28571415000000000;marker:none;visibility:visible;display:inline;overflow:visible;enable-background:accumulate"
     d="m 24,0 38,0 2,1 0,26 -64,0 0,-3 C 0,10.704 10.704,0 24,0 z"
     id="path3075"
     inkscape:connector-curvature="0"
     sodipodi:nodetypes="sccccss" />
  <path
     inkscape:connector-curvature="0"
     style="color:#000000;fill:#d89e27;fill-opacity:1;fill-rule:nonzero;stroke:none;stroke-width:2.28571415000000000;marker:none;visibility:visible;display:inline;overflow:visible;enable-background:accumulate"
     d="M 24,4 C 10.704,4 0,14.704 0,28 l 0,6 0,28 2,2 60,0 2,-2 0,-58 -24,0 -8,0 -8,0 z"
     id="path4021" />
  <path
     sodipodi:type="inkscape:offset"
     inkscape:radius="-5.5064173"
     inkscape:original="M 24 4 C 10.704 4 0 14.704 0 28 L 0 34 L 0 62 L 2 64 L 62 64 L 64 62 L 64 4 L 40 4 L 32 4 L 24 4 z "
     style="color:#000000;fill:none;stroke:#f7f6cf;stroke-width:1;stroke-miterlimit:4;stroke-dasharray:none;marker:none;visibility:visible;display:inline;overflow:visible;enable-background:accumulate;stroke-opacity:1;stroke-linecap:butt;stroke-linejoin:miter;stroke-dashoffset:0"
     id="path4025"
     d="M 24,9.5 C 13.659309,9.5 5.5,17.659309 5.5,28 l 0,6 0,24.5 53,0 0,-49 -18.5,0 -8,0 -8,0 z" />
  <path
     d="M 64,6 62,4 64,3 z"
     id="path3028"
     style="fill:#eabb3b;fill-opacity:1"
     inkscape:connector-curvature="0" />
  <g
     id="g3043"
     inkscape:export-filename="folder.png"
     inkscape:export-xdpi="90"
     inkscape:export-ydpi="90"
     transform="translate(-0.625,0.082283)" />
  <g
     id="scalable"
     transform="matrix(1.0385892,0,0,1.0385892,1214.7222,1878.8121)"
     inkscape:label="#g3701"
     style="fill:#ffffff" />
  <g
     id="g3043-4"
     inkscape:export-filename="folder.png"
     inkscape:export-xdpi="90"
     inkscape:export-ydpi="90"
     transform="translate(-0.62500009,0.082283)" />
  <g
     id="scalable-6"
     transform="matrix(1.0385892,0,0,1.0385892,1214.7222,1878.8121)"
     inkscape:label="#g3701"
     style="fill:#ffffff" />
  <path
     style="color:#000000;fill:#f7f6cf;fill-opacity:1;fill-rule:nonzero;stroke:none;stroke-width:2.28571415000000000;marker:none;visibility:visible;display:inline;overflow:visible;enable-background:accumulate"
     d="M 15 22 L 15 24.84375 L 22.625 29.53125 C 24.82944 26.769667 28.209428 25 32 25 C 35.790572 25 39.17056 26.769667 41.375 29.53125 L 49 24.84375 L 49 22 L 15 22 z M 32 28 C 27.01167 28 23 32.011671 23 37 C 23 41.98833 27.01167 46 32 46 C 36.988329 46 41 41.98833 41 37 C 41 32.011671 36.988329 28 32 28 z M 15 28.375 L 15 46 L 24.09375 46 C 21.587949 43.79552 20 40.58277 20 37 C 20 35.239338 20.375397 33.572264 21.0625 32.0625 L 15 28.375 z M 49 28.375 L 42.9375 32.0625 C 43.624603 33.572264 44 35.239338 44 37 C 44 40.58277 42.412051 43.79552 39.90625 46 L 49 46 L 49 28.375 z M 26.84375 31.75 L 32.0625 35.21875 L 36.21875 32.71875 L 37.78125 35.28125 L 32.78125 38.28125 L 31.96875 38.78125 L 31.15625 38.25 L 25.15625 34.25 L 26.84375 31.75 z "
     id="rect3945" />
  <g
     id="g3043-6"
     inkscape:export-filename="folder.png"
     inkscape:export-xdpi="90"
     inkscape:export-ydpi="90"
     transform="translate(73.375,1.082283)" />
  <g
     id="scalable-66"
     transform="matrix(1.0385892,0,0,1.0385892,1288.7222,1879.8121)"
     inkscape:label="#g3701"
     style="fill:#ffffff" />
</svg>

<svg xmlns="http://www.w3.org/2000/svg" viewBox="0 0 64 64"><g color="#000"><path d="m24 0h38l2 1v26h-64v-3c0-13.296 10.704-24 24-24" fill="#ffde53"/><path d="m24 4c-13.296 0-24 10.704-24 24v6 28l2 2h60l2-2v-58h-24-8-8" fill="#d89e27"/><path d="m24 9.5c-10.341 0-18.5 8.159-18.5 18.5v6 24.5h53v-49h-18.5-8-8z" fill="none" stroke="#f7f6cf"/></g><path d="m64 6l-2-2 2-1z" fill="#eabb3b"/><path d="m15 22v2.844l7.625 4.688c2.204-2.762 5.584-4.531 9.375-4.531 3.791 0 7.171 1.77 9.375 4.531l7.625-4.688v-2.844h-34m17 6c-4.988 0-9 4.01-9 9 0 4.988 4.01 9 9 9 4.988 0 9-4.01 9-9 0-4.988-4.01-9-9-9m-17 .375v17.625h9.09c-2.506-2.204-4.094-5.417-4.094-9 0-1.761.375-3.428 1.063-4.938l-6.06-3.688m34 0l-6.06 3.688c.687 1.51 1.063 3.177 1.063 4.938 0 3.583-1.588 6.796-4.094 9h9.09v-17.625m-22.16 3.375l5.219 3.469 4.156-2.5 1.563 2.563-5 3-.813.5-.813-.531-6-4 1.688-2.5" fill="#f7f6cf" color="#000"/></svg>
